X:15
T: Jia lang yiao jia geng tian lang
N: C1515
O: China,Guangdong, Meixian
S: II, 401]
R: Shange, Dieban shange]
M: 2/4
L: 1/16
K: A
BccBA2B4Ac | cBA2ABc2 | F2F2F2Bc | F2FEF4 | A2B4c2 |
z2ABF2BA | F6
AB | F2c2F2c2 | ABc2BcF2 |
B2B2Bcc2 | B2B2ABBA | F4F2A2- | A6BA | F6
Ac | A2cABccA | B6
Bc | Bcc2ABF2 |
CFF2F2F2
BAA2ABB2
B2BAF2F2
A2ABF2FB | F2ABF2A2- | A6
Ac | F2cABccA | B6
cc | B2BcF2F2 |
F2FABcc2
F2ABF2F2
B2ABB2B2
F2FAB2B2
BAFAB2B2
F2F2A2AB
A2ABF2FB | ABF2F3E | F2F6

@@@ Tune index: 6570
